deployments/warp_routes/FUEL/logo.svg

<svg width="354" height="500" viewBox="0 0 354 500" fill="none" xmlns="http://www.w3.org/2000/svg">
<g clip-path="url(#clip0_1_15040)">
<path d="M88.3564 491.819V388.481H102.685V485.662H158.745L158.426 388.583L173.074 388.481V491.819C173.074 493.989 172.212 496.07 170.678 497.604C169.144 499.138 167.063 500 164.893 500H96.537C95.4627 500 94.399 499.788 93.4064 499.377C92.4139 498.966 91.5121 498.364 90.7525 497.604C89.9929 496.844 89.3903 495.942 88.9792 494.95C88.568 493.957 88.3564 492.894 88.3564 491.819Z" fill="black"/>
<path d="M281.125 491.819V388.481H295.477V485.662H353.264V500.014H289.306C288.23 500.014 287.165 499.802 286.172 499.39C285.178 498.978 284.276 498.374 283.516 497.613C282.756 496.852 282.154 495.948 281.744 494.954C281.333 493.96 281.123 492.895 281.125 491.819Z" fill="black"/>
<path d="M0 500H14.3287V451.569H68.3241V437.218H14.3287V402.805H67.4398C68.2125 402.808 68.9701 402.592 69.6254 402.182C70.2806 401.773 70.8069 401.186 71.1435 400.491L76.8472 388.486H8.18056C7.10649 388.485 6.04283 388.697 5.05034 389.107C4.05786 389.518 3.15601 390.12 2.39632 390.879C1.63662 391.638 1.03397 392.54 0.622799 393.532C0.211631 394.524 -1.72195e-07 395.588 0 396.662V500Z" fill="black"/>
<path d="M188.676 396.657C188.676 395.583 188.888 394.52 189.299 393.528C189.71 392.535 190.313 391.634 191.072 390.874C191.832 390.115 192.734 389.513 193.726 389.102C194.719 388.692 195.783 388.481 196.857 388.481H265.519L259.81 400.486C259.474 401.182 258.948 401.769 258.293 402.178C257.637 402.588 256.879 402.804 256.107 402.801H203.005V437.213H257V451.565H203.005V485.657H265.505V500.009H196.857C194.687 500.009 192.606 499.147 191.072 497.613C189.538 496.079 188.676 493.998 188.676 491.829V396.657Z" fill="black"/>
<path d="M23.4861 4.56429e-07C20.4021 -0.000607592 17.3481 0.606316 14.4987 1.7861C11.6493 2.96588 9.06015 4.69542 6.87921 6.87594C4.69826 9.05645 2.9682 11.6452 1.78786 14.4944C0.607512 17.3436 -5.99417e-08 20.3975 0 23.4815V353.167H292.268C297.169 353.17 302.022 352.208 306.55 350.334C311.079 348.46 315.193 345.711 318.657 342.245L342.338 318.574C349.329 311.581 353.258 302.097 353.259 292.208V4.56429e-07H23.4861Z" fill="#00F58C"/>
<path d="M57.2546 45.4074H230.634L115.759 160.259C112.907 163.108 109.04 164.708 105.009 164.708C102.13 164.708 99.309 163.891 96.8757 162.351C94.4424 160.811 92.4963 158.612 91.2638 156.009L46.7592 61.9352C45.9225 60.1684 45.5469 58.2185 45.6676 56.2673C45.7882 54.3161 46.4011 52.4273 47.449 50.777C48.497 49.1267 49.9458 47.7687 51.6605 46.8298C53.3751 45.8908 55.2997 45.4015 57.2546 45.4074Z" fill="black"/>
<path d="M45.4167 307.741V196.005C45.418 193.142 46.556 190.397 48.5805 188.374C50.6051 186.35 53.3505 185.213 56.213 185.213H167.986L45.4167 307.741Z" fill="black"/>
<path d="M196.477 156.731C191.365 161.839 184.434 164.708 177.208 164.708H140.208L251.555 53.3842C256.667 48.2768 263.598 45.4077 270.824 45.4073H307.824L196.477 156.731Z" fill="black"/>
</g>
<defs>
<clipPath id="clip0_1_15040">
<rect width="353.241" height="500" fill="white"/>
</clipPath>
</defs>
</svg>

<svg width="354" height="354" viewBox="0 0 354 354" fill="none" xmlns="http://www.w3.org/2000/svg"><g clip-path="url(#a)"><path d="M23.486 0A23.48 23.48 0 0 0 0 23.482v329.685h292.268a37.3 37.3 0 0 0 26.389-10.922l23.681-23.671a37.3 37.3 0 0 0 10.921-26.366V0z" fill="#00F58C"/><path d="M57.255 45.407h173.379L115.759 160.26a15.21 15.21 0 0 1-24.495-4.25L46.759 61.935a11.573 11.573 0 0 1 10.496-16.528M45.417 307.741V196.005a10.795 10.795 0 0 1 10.796-10.792h111.773zm151.06-151.01a27.26 27.26 0 0 1-19.269 7.977h-37L251.555 53.384a27.27 27.27 0 0 1 19.269-7.977h37z" fill="#000"/></g><defs><clipPath id="a"><path fill="#fff" d="M0 0h353.241v353.241H0z"/></clipPath></defs></svg>
